local/share/icons/dracula-icons-main/16/devices/network-vpn.svg

<?xml version="1.0" encoding="UTF-8"?>
<svg xmlns="http://www.w3.org/2000/svg" xmlns:xlink="http://www.w3.org/1999/xlink" width="16" height="16" viewBox="0 0 16 16">
<path fill-rule="nonzero" fill="rgb(44.705882%, 44.705882%, 44.705882%)" fill-opacity="1" d="M 8 0 L 1.335938 2.332031 C 1.335938 11.3125 1.078125 12 8 16 C 14.867188 12.03125 14.664062 11.316406 14.664062 2.332031 Z M 8.167969 4.332031 C 9.179688 4.332031 10 5.152344 10 6.167969 C 10.003906 6.902344 9.5625 7.566406 8.886719 7.851562 L 10 11.667969 L 6.332031 11.667969 L 7.445312 7.851562 C 6.769531 7.566406 6.332031 6.902344 6.332031 6.167969 C 6.332031 5.152344 7.152344 4.332031 8.167969 4.332031 Z M 8.167969 4.332031 "/>
</svg>

<svg xmlns="http://www.w3.org/2000/svg" width="16" height="16" viewBox="0 0 16 16">
 <defs>
  <style id="current-color-scheme" type="text/css">
   .ColorScheme-Text { color:#727272; } .ColorScheme-Highlight { color:#5294e2; }
  </style>
 </defs>
 <path style="fill:currentColor" class="ColorScheme-Text" d="m8.0003 0-6.6651 2.3331c0 8.9794-0.25886 9.6686 6.6651 13.667 6.8669-3.9691 6.6651-4.684 6.6651-13.667zm0.16686 4.3331a1.8331 1.8331 0 0 1 1.8331 1.8337 1.8234 1.8234 0 0 1-1.1131 1.6857l1.1131 3.8143h-3.6669l1.1137-3.8137a1.8229 1.8229 0 0 1-1.1137-1.6863 1.8331 1.8331 0 0 1 1.8337-1.8337z" overflow="visible" stroke-width=".5"/>
</svg>
